icons/desktop/16/svg/playback-forward-16.svg

<svg width="16" height="16" viewBox="0 0 16 16" fill="none" xmlns="http://www.w3.org/2000/svg">
<path d="M7.51306 0C9.8471 7.11526e-06 11.93 1.06712 13.3051 2.7373L14.3959 1.64746C14.7109 1.33247 15.2503 1.556 15.2504 2.00098V5.5C15.2504 5.77589 15.0262 5.99982 14.7504 6H11.2513C10.8055 6 10.5823 5.46153 10.8969 5.14648L12.2377 3.80469C11.1386 2.40162 9.43146 1.50001 7.51306 1.5C4.20035 1.5 1.51404 4.18614 1.51404 7.5C1.51404 10.8138 4.20025 13.5 7.51404 13.5C10.1911 13.5 12.461 11.7461 13.2328 9.32227C13.3585 8.92791 13.7797 8.70964 14.1742 8.83496C14.5688 8.96062 14.7871 9.38269 14.6615 9.77734C13.6973 12.8055 10.863 15 7.51404 15C3.37182 15 0.0140381 11.6422 0.0140381 7.5C0.0140381 3.35786 3.37178 0 7.51306 0Z" fill="black"/>
<path d="M9.31775 5.55469H6.77478L6.62439 7.01172H6.65759C6.75959 6.86772 6.91546 6.7493 7.12146 6.6543C7.32735 6.55939 7.55901 6.51174 7.81384 6.51172C8.16384 6.51172 8.47732 6.59379 8.75232 6.75879C9.0271 6.92369 9.24277 7.14978 9.40271 7.4375C9.56168 7.72345 9.64101 8.05384 9.63904 8.42676C9.64104 8.81875 9.5496 9.16768 9.3656 9.47168C9.18362 9.77464 8.92887 10.0135 8.60193 10.1875C8.27597 10.3595 7.89712 10.4472 7.46619 10.4473V10.4492C7.06419 10.4492 6.70697 10.3746 6.39197 10.2266C6.08009 10.0786 5.83078 9.87612 5.64783 9.61621C5.46383 9.35621 5.36872 9.05863 5.36072 8.72363H6.55408C6.56708 8.9486 6.66231 9.13149 6.83826 9.27148C7.01426 9.41148 7.22319 9.48242 7.46619 9.48242C7.65912 9.4824 7.82997 9.43849 7.97693 9.35352C8.12676 9.26659 8.2426 9.14695 8.32556 8.99316C8.41056 8.83817 8.45446 8.65997 8.45447 8.45898C8.45447 8.25398 8.40963 8.07495 8.32263 7.91895C8.23764 7.76403 8.11908 7.64166 7.96814 7.55469C7.81615 7.4677 7.64262 7.4229 7.44763 7.4209C7.27777 7.42095 7.11144 7.45642 6.95056 7.52637C6.79204 7.59625 6.66834 7.69187 6.57947 7.8125L5.48474 7.61719L5.76111 4.54883H9.31775V5.55469Z" fill="black"/>
</svg>

<!-- This Source Code Form is subject to the terms of the Mozilla Public
   - License, v. 2.0. If a copy of the MPL was not distributed with this
   - file, You can obtain one at http://mozilla.org/MPL/2.0/. -->
<svg xmlns="http://www.w3.org/2000/svg" width="16" height="16" fill="context-fill" fill-opacity="context-fill-opacity" viewBox="0 0 16 16">
    <path d="M7.513 0a7.48 7.48 0 0 1 5.792 2.737l1.09-1.09a.5.5 0 0 1 .855.354V5.5a.5.5 0 0 1-.5.5h-3.499a.5.5 0 0 1-.354-.854l1.34-1.341A6 6 0 1 0 7.514 13.5a6 6 0 0 0 5.72-4.178.75.75 0 1 1 1.428.455A7.5 7.5 0 1 1 7.514 0" />
    <path d="M9.318 5.555H6.775l-.15 1.457h.033q.154-.216.463-.358t.693-.142q.525 0 .938.247.411.247.65.678.24.43.237.99.002.588-.273 1.045a1.93 1.93 0 0 1-.764.716q-.49.259-1.136.26v.001q-.602 0-1.074-.222a1.87 1.87 0 0 1-.744-.61 1.57 1.57 0 0 1-.287-.893h1.193a.73.73 0 0 0 .284.547q.264.21.628.211.29-.001.51-.128a.9.9 0 0 0 .35-.36q.128-.234.128-.535 0-.307-.131-.54a.93.93 0 0 0-.355-.364 1.05 1.05 0 0 0-.52-.134q-.256 0-.497.105a.9.9 0 0 0-.372.287l-1.094-.196.276-3.068h3.557z" />
</svg>
